X:1
T:Webster Groves, 87.87 D
T:Hubert Platt Main, 1902
T:Webster Groves, 87.87 D
T:Public Domain
C:Hubert Platt Main, 1902
Z:Public Domain
%%score ( 1 2 ) ( 3 4 )
L:1/8
M:9/8
K:Ab
V:1 treble 
V:2 treble 
V:3 bass 
V:4 bass 
V:1
 [CA][DB][Ec] | [Fd]3- [Fd]2 [Ec] ([DB][Ec])[Fd] | [Ec]3 [CA]3 (CD)[EA] | %3
 [FA]3- ([FA][=EG])[FA] (BA)[DF] | [CE]6 [Ec]2 [Ec] | [Ge]3- [Ge]2 [GB] ([GB]A)[GB] | %6
 [Ac]3 [Ac]3 [Ae]2 [Ae] | [Ge]3- [Ge]2 [Ge] (=dc)[Ad] | [Ge]6 (ed)[Ec] | [Ed]3 [Ed]3 (dc)[EB] | %10
 [Ec]3 [Ec]3 (CE)[EB] | [Ec]3 [Ec]3 (cB)[_DA] | [EB]6 [DE]2 [DE] | [CA]3- [CA]2 [CA] [Ec]2 [_Ge] | %14
 [_Ge]3 [Fd]3 [CA]2 [=DB] | [Ec]3- [Ec]2 [Ac] (BA)[EG] | [EA]6 |] %17
V:2
 x3 | x9 | x6 A2 x | x6 F2 x | x9 | x7 A x | x9 | x6 A2 x | x6 E2 x | x6 E2 x | x6 A2 x | %11
 x6 =D2 x | x9 | x9 | x9 | x6 E2 x | x6 |] %17
V:3
 A,2 A, | A,3- A,2 A, [E,G,]2 [E,G,] | A,3 [A,,A,]3 (A,,B,,)[C,A,] | %3
 [D,A,]3- [D,A,]2 [D,A,] [D,A,]2 [D,A,] | [A,,A,]6 A,2 A, | [E,B,]3- [E,B,]2 [E,D] (DC)[E,E] | %6
 [A,E]3 [A,E]3 [A,C]2 [A,C] | [E,B,]3- [E,B,]2 [E,B,] [B,,B,]2 [B,,B,] | [E,B,]6 (CB,)A, | %9
 [E,B,]3 [E,B,]3 (B,A,)[E,G,] | A,3 A,3 (A,,C,)[E,G,] | A,3 A,3 [F,B,]2 [F,B,] | %12
 [E,G,]6 [E,G,]2 [E,G,] | [A,,A,]3- [A,,A,]2 [A,,A,] [A,,A,]2 [C,A,] | %14
 [C,A,]3 [D,A,]3 [F,A,]2 [F,A,] | [E,A,]3- [E,A,]2 [E,E] (DC)[E,B,] | [A,,C]6 |] %17
V:4
 A,2 A, | A,3- A,2 A, x3 | A,3 A,2 x4 | x9 | x6 A,2 A, | x6 E,2 x | x9 | x9 | x6 A,2 A, | %9
 x6 E,2 x | A,3 A,3 A,2 x | A,3 A,3 x3 | x9 | x9 | x9 | x6 E,2 x | x6 |] %17

